src/shared/assets/images/logo.svg

<svg xmlns="http://www.w3.org/2000/svg" width="159" height="40" fill="none">
<rect width="40" height="40" fill="#ABD27A" rx="20"/>
<path fill="#F9FAF7" d="M20 10s.552 5.15 2.7 7.3C24.85 19.447 30 20 30 20s-5.15.552-7.3 2.7C20.553 24.85 20 30 20 30s-.552-5.15-2.7-7.3C15.15 20.553 10 20 10 20s5.15-.552 7.3-2.7C19.447 15.15 20 10 20 10Z"/>
<path fill="#253017" d="M55.288 22.36a9.218 9.218 0 0 0 1.152 1.632c.432.464.904.824 1.416 1.08a3.651 3.651 0 0 0 1.656.384c.688 0 1.248-.176 1.68-.528.432-.352.648-.832.648-1.44 0-.528-.136-.952-.408-1.272-.256-.32-.648-.6-1.176-.84a21.545 21.545 0 0 0-1.896-.816c-.4-.144-.864-.336-1.392-.576-.512-.256-1-.576-1.464-.96-.464-.4-.848-.88-1.152-1.44-.304-.576-.456-1.264-.456-2.064 0-.96.24-1.784.72-2.472.496-.704 1.16-1.24 1.992-1.608.848-.384 1.792-.576 2.832-.576 1.072 0 1.992.184 2.76.552.784.352 1.432.808 1.944 1.368a6.615 6.615 0 0 1 1.224 1.704l-2.688 1.488c-.224-.4-.496-.76-.816-1.08a3.393 3.393 0 0 0-1.056-.792 2.922 2.922 0 0 0-1.368-.312c-.672 0-1.176.16-1.512.48-.336.304-.504.664-.504 1.08 0 .416.136.784.408 1.104.272.304.688.6 1.248.888.56.272 1.264.552 2.112.84a9.192 9.192 0 0 1 1.56.72c.512.288.968.64 1.368 1.056.416.4.736.88.96 1.44.24.544.36 1.176.36 1.896 0 .816-.16 1.544-.48 2.184-.32.64-.76 1.184-1.32 1.632-.56.432-1.192.76-1.896.984-.688.24-1.416.36-2.184.36a7.233 7.233 0 0 1-2.88-.576 7.557 7.557 0 0 1-2.304-1.608 7.974 7.974 0 0 1-1.536-2.184l2.448-1.728ZM67.614 9.28h3V28h-3V9.28Zm7.056 7.68h3.72l-4.752 4.56L78.87 28h-3.696l-5.256-6.48 4.752-4.56Zm5.428-4.272c0-.512.184-.928.552-1.248a1.89 1.89 0 0 1 1.32-.504c.512 0 .944.168 1.296.504.368.32.552.736.552 1.248 0 .496-.184.912-.552 1.248a1.806 1.806 0 0 1-1.296.504 1.89 1.89 0 0 1-1.32-.504 1.622 1.622 0 0 1-.552-1.248Zm.336 4.272h3.024V28h-3.024V16.96Zm6.06-7.68h3.12V28h-3.12V9.28Zm5.924 0h3.12V28h-3.12V9.28Zm7.675 13.08a9.218 9.218 0 0 0 1.152 1.632c.432.464.904.824 1.416 1.08a3.651 3.651 0 0 0 1.656.384c.688 0 1.248-.176 1.68-.528.432-.352.648-.832.648-1.44 0-.528-.136-.952-.408-1.272-.256-.32-.648-.6-1.176-.84a21.545 21.545 0 0 0-1.896-.816c-.4-.144-.864-.336-1.392-.576-.512-.256-1-.576-1.464-.96-.464-.4-.848-.88-1.152-1.44-.304-.576-.456-1.264-.456-2.064 0-.96.24-1.784.72-2.472.496-.704 1.16-1.24 1.992-1.608.848-.384 1.792-.576 2.832-.576 1.072 0 1.992.184 2.76.552.784.352 1.432.808 1.944 1.368a6.615 6.615 0 0 1 1.224 1.704l-2.688 1.488c-.224-.4-.496-.76-.816-1.08a3.393 3.393 0 0 0-1.056-.792 2.922 2.922 0 0 0-1.368-.312c-.672 0-1.176.16-1.512.48-.336.304-.504.664-.504 1.08 0 .416.136.784.408 1.104.272.304.688.6 1.248.888.56.272 1.264.552 2.112.84a9.192 9.192 0 0 1 1.56.72c.512.288.968.64 1.368 1.056.416.4.736.88.96 1.44.24.544.36 1.176.36 1.896 0 .816-.16 1.544-.48 2.184-.32.64-.76 1.184-1.32 1.632-.56.432-1.192.76-1.896.984-.688.24-1.416.36-2.184.36a7.233 7.233 0 0 1-2.88-.576 7.557 7.557 0 0 1-2.304-1.608 7.974 7.974 0 0 1-1.536-2.184l2.448-1.728Zm10.766-5.4h3.312l2.424 6.12 3.12-6.96 3.24 6.984 2.448-6.144h3.288l-5.4 11.784-3.552-7.032-3.456 7.032-5.424-11.784Zm21.248 7.608c0 .32.08.6.24.84.16.224.376.4.648.528.288.112.6.168.936.168.48 0 .912-.096 1.296-.288.384-.208.696-.496.936-.864.24-.384.36-.84.36-1.368l.384 1.44c0 .704-.2 1.296-.6 1.776-.384.48-.888.84-1.512 1.08-.608.24-1.248.36-1.92.36a4.543 4.543 0 0 1-1.92-.408 3.578 3.578 0 0 1-1.44-1.176c-.352-.528-.528-1.168-.528-1.92 0-1.072.376-1.92 1.128-2.544.752-.624 1.816-.936 3.192-.936.704 0 1.32.072 1.848.216.544.144 1 .32 1.368.528.368.208.632.408.792.6v1.44c-.432-.32-.92-.56-1.464-.72a5.763 5.763 0 0 0-1.68-.24c-.48 0-.872.064-1.176.192-.304.112-.528.28-.672.504-.144.208-.216.472-.216.792Zm-1.2-4.488-1.152-2.112c.576-.304 1.28-.592 2.112-.864.832-.288 1.76-.432 2.784-.432.944 0 1.784.136 2.52.408.736.272 1.312.672 1.728 1.2.416.512.624 1.144.624 1.896V28h-3v-7.176c0-.304-.048-.56-.144-.768a1.27 1.27 0 0 0-.456-.552 1.851 1.851 0 0 0-.696-.312 3.99 3.99 0 0 0-.912-.096c-.512 0-1 .056-1.464.168a6.172 6.172 0 0 0-1.944.816Zm14.292 13.2h-3.12V16.96h3.12v16.32Zm9.072-10.8c0 1.248-.248 2.312-.744 3.192-.496.88-1.152 1.544-1.968 1.992-.8.448-1.664.672-2.592.672-.944 0-1.768-.24-2.472-.72-.688-.48-1.224-1.16-1.608-2.04-.368-.88-.552-1.912-.552-3.096 0-1.2.184-2.232.552-3.096.384-.88.92-1.56 1.608-2.04.704-.48 1.528-.72 2.472-.72.928 0 1.792.224 2.592.672.816.448 1.472 1.112 1.968 1.992.496.864.744 1.928.744 3.192Zm-3.216 0c0-.656-.136-1.216-.408-1.68a2.696 2.696 0 0 0-1.104-1.056 3.1 3.1 0 0 0-1.488-.36c-.464 0-.92.12-1.368.36-.432.224-.792.568-1.08 1.032-.272.464-.408 1.032-.408 1.704 0 .672.136 1.24.408 1.704.288.464.648.816 1.08 1.056.448.224.904.336 1.368.336a3.1 3.1 0 0 0 1.488-.36c.464-.24.832-.592 1.104-1.056.272-.464.408-1.024.408-1.68Z"/>
</svg>

<svg width="159" height="40" viewBox="0 0 159 40" fill="none" xmlns="http://www.w3.org/2000/svg">
<rect width="40" height="40" rx="20" fill="#ABD27A"/>
<path d="M20 10C20 10 20.5518 15.1499 22.7009 17.2991C24.8501 19.4482 30 20 30 20C30 20 24.8501 20.5518 22.7009 22.7009C20.5518 24.8501 20 30 20 30C20 30 19.4482 24.8501 17.2991 22.7009C15.1499 20.5518 10 20 10 20C10 20 15.1499 19.4482 17.2991 17.2991C19.4482 15.1499 20 10 20 10Z" fill="#F9FAF7"/>
<path d="M55.288 22.36C55.64 22.984 56.024 23.528 56.44 23.992C56.872 24.456 57.344 24.816 57.856 25.072C58.368 25.328 58.92 25.456 59.512 25.456C60.2 25.456 60.76 25.28 61.192 24.928C61.624 24.576 61.84 24.096 61.84 23.488C61.84 22.96 61.704 22.536 61.432 22.216C61.176 21.896 60.784 21.616 60.256 21.376C59.744 21.12 59.112 20.848 58.36 20.56C57.96 20.416 57.496 20.224 56.968 19.984C56.456 19.728 55.968 19.408 55.504 19.024C55.04 18.624 54.656 18.144 54.352 17.584C54.048 17.008 53.896 16.32 53.896 15.52C53.896 14.56 54.136 13.736 54.616 13.048C55.112 12.344 55.776 11.808 56.608 11.44C57.456 11.056 58.4 10.864 59.44 10.864C60.512 10.864 61.432 11.048 62.2 11.416C62.984 11.768 63.632 12.224 64.144 12.784C64.672 13.328 65.08 13.896 65.368 14.488L62.68 15.976C62.456 15.576 62.184 15.216 61.864 14.896C61.56 14.56 61.208 14.296 60.808 14.104C60.408 13.896 59.952 13.792 59.44 13.792C58.768 13.792 58.264 13.952 57.928 14.272C57.592 14.576 57.424 14.936 57.424 15.352C57.424 15.768 57.56 16.136 57.832 16.456C58.104 16.76 58.52 17.056 59.08 17.344C59.64 17.616 60.344 17.896 61.192 18.184C61.736 18.376 62.256 18.616 62.752 18.904C63.264 19.192 63.72 19.544 64.12 19.96C64.536 20.36 64.856 20.84 65.08 21.4C65.32 21.944 65.44 22.576 65.44 23.296C65.44 24.112 65.28 24.84 64.96 25.48C64.64 26.12 64.2 26.664 63.64 27.112C63.08 27.544 62.448 27.872 61.744 28.096C61.056 28.336 60.328 28.456 59.56 28.456C58.536 28.456 57.576 28.264 56.68 27.88C55.8 27.48 55.032 26.944 54.376 26.272C53.72 25.6 53.208 24.872 52.84 24.088L55.288 22.36ZM67.6141 9.28H70.6141V28H67.6141V9.28ZM74.6701 16.96H78.3901L73.6381 21.52L78.8701 28H75.1741L69.9181 21.52L74.6701 16.96ZM80.0984 12.688C80.0984 12.176 80.2824 11.76 80.6504 11.44C81.0184 11.104 81.4584 10.936 81.9704 10.936C82.4824 10.936 82.9144 11.104 83.2664 11.44C83.6344 11.76 83.8184 12.176 83.8184 12.688C83.8184 13.184 83.6344 13.6 83.2664 13.936C82.9144 14.272 82.4824 14.44 81.9704 14.44C81.4584 14.44 81.0184 14.272 80.6504 13.936C80.2824 13.6 80.0984 13.184 80.0984 12.688ZM80.4344 16.96H83.4584V28H80.4344V16.96ZM86.494 9.28H89.614V28H86.494V9.28ZM92.4175 9.28H95.5375V28H92.4175V9.28ZM100.093 22.36C100.445 22.984 100.829 23.528 101.245 23.992C101.677 24.456 102.149 24.816 102.661 25.072C103.173 25.328 103.725 25.456 104.317 25.456C105.005 25.456 105.565 25.28 105.997 24.928C106.429 24.576 106.645 24.096 106.645 23.488C106.645 22.96 106.509 22.536 106.237 22.216C105.981 21.896 105.589 21.616 105.061 21.376C104.549 21.12 103.917 20.848 103.165 20.56C102.765 20.416 102.301 20.224 101.773 19.984C101.261 19.728 100.773 19.408 100.309 19.024C99.845 18.624 99.461 18.144 99.157 17.584C98.853 17.008 98.701 16.32 98.701 15.52C98.701 14.56 98.941 13.736 99.421 13.048C99.917 12.344 100.581 11.808 101.413 11.44C102.261 11.056 103.205 10.864 104.245 10.864C105.317 10.864 106.237 11.048 107.005 11.416C107.789 11.768 108.437 12.224 108.949 12.784C109.477 13.328 109.885 13.896 110.173 14.488L107.485 15.976C107.261 15.576 106.989 15.216 106.669 14.896C106.365 14.56 106.013 14.296 105.613 14.104C105.213 13.896 104.757 13.792 104.245 13.792C103.573 13.792 103.069 13.952 102.733 14.272C102.397 14.576 102.229 14.936 102.229 15.352C102.229 15.768 102.365 16.136 102.637 16.456C102.909 16.76 103.325 17.056 103.885 17.344C104.445 17.616 105.149 17.896 105.997 18.184C106.541 18.376 107.061 18.616 107.557 18.904C108.069 19.192 108.525 19.544 108.925 19.96C109.341 20.36 109.661 20.84 109.885 21.4C110.125 21.944 110.245 22.576 110.245 23.296C110.245 24.112 110.085 24.84 109.765 25.48C109.445 26.12 109.005 26.664 108.445 27.112C107.885 27.544 107.253 27.872 106.549 28.096C105.861 28.336 105.133 28.456 104.365 28.456C103.341 28.456 102.381 28.264 101.485 27.88C100.605 27.48 99.837 26.944 99.181 26.272C98.525 25.6 98.013 24.872 97.645 24.088L100.093 22.36ZM110.859 16.96H114.171L116.595 23.08L119.715 16.12L122.955 23.104L125.403 16.96H128.691L123.291 28.744L119.739 21.712L116.283 28.744L110.859 16.96ZM132.107 24.568C132.107 24.888 132.187 25.168 132.347 25.408C132.507 25.632 132.723 25.808 132.995 25.936C133.283 26.048 133.595 26.104 133.931 26.104C134.411 26.104 134.843 26.008 135.227 25.816C135.611 25.608 135.923 25.32 136.163 24.952C136.403 24.568 136.523 24.112 136.523 23.584L136.907 25.024C136.907 25.728 136.707 26.32 136.307 26.8C135.923 27.28 135.419 27.64 134.795 27.88C134.187 28.12 133.547 28.24 132.875 28.24C132.187 28.24 131.547 28.104 130.955 27.832C130.363 27.56 129.883 27.168 129.515 26.656C129.163 26.128 128.987 25.488 128.987 24.736C128.987 23.664 129.363 22.816 130.115 22.192C130.867 21.568 131.931 21.256 133.307 21.256C134.011 21.256 134.627 21.328 135.155 21.472C135.699 21.616 136.155 21.792 136.523 22C136.891 22.208 137.155 22.408 137.315 22.6V24.04C136.883 23.72 136.395 23.48 135.851 23.32C135.323 23.16 134.763 23.08 134.171 23.08C133.691 23.08 133.299 23.144 132.995 23.272C132.691 23.384 132.467 23.552 132.323 23.776C132.179 23.984 132.107 24.248 132.107 24.568ZM130.907 20.08L129.755 17.968C130.331 17.664 131.035 17.376 131.867 17.104C132.699 16.816 133.627 16.672 134.651 16.672C135.595 16.672 136.435 16.808 137.171 17.08C137.907 17.352 138.483 17.752 138.899 18.28C139.315 18.792 139.523 19.424 139.523 20.176V28H136.523V20.824C136.523 20.52 136.475 20.264 136.379 20.056C136.283 19.832 136.131 19.648 135.923 19.504C135.731 19.36 135.499 19.256 135.227 19.192C134.955 19.128 134.651 19.096 134.315 19.096C133.803 19.096 133.315 19.152 132.851 19.264C132.387 19.376 131.987 19.512 131.651 19.672C131.315 19.832 131.067 19.968 130.907 20.08ZM145.199 33.28H142.079V16.96H145.199V33.28ZM154.271 22.48C154.271 23.728 154.023 24.792 153.527 25.672C153.031 26.552 152.375 27.216 151.559 27.664C150.759 28.112 149.895 28.336 148.967 28.336C148.023 28.336 147.199 28.096 146.495 27.616C145.807 27.136 145.271 26.456 144.887 25.576C144.519 24.696 144.335 23.664 144.335 22.48C144.335 21.28 144.519 20.248 144.887 19.384C145.271 18.504 145.807 17.824 146.495 17.344C147.199 16.864 148.023 16.624 148.967 16.624C149.895 16.624 150.759 16.848 151.559 17.296C152.375 17.744 153.031 18.408 153.527 19.288C154.023 20.152 154.271 21.216 154.271 22.48ZM151.055 22.48C151.055 21.824 150.919 21.264 150.647 20.8C150.375 20.336 150.007 19.984 149.543 19.744C149.095 19.504 148.599 19.384 148.055 19.384C147.591 19.384 147.135 19.504 146.687 19.744C146.255 19.968 145.895 20.312 145.607 20.776C145.335 21.24 145.199 21.808 145.199 22.48C145.199 23.152 145.335 23.72 145.607 24.184C145.895 24.648 146.255 25 146.687 25.24C147.135 25.464 147.591 25.576 148.055 25.576C148.599 25.576 149.095 25.456 149.543 25.216C150.007 24.976 150.375 24.624 150.647 24.16C150.919 23.696 151.055 23.136 151.055 22.48Z" fill="#253017"/>
</svg>
